!!!OTL: WANN I IN DER FRUEH AUFSTEH
!!!ARE: Europa, Mitteleuropa, Schweiz
!!!SCT: F0165
!!!YEM: Copyright 1995, estate of Helmut Schaffrath.
**kern
*ICvox
*Ivox
*M3/4
*k[]
*C:
=1
{8C
8C
4E
4G
=2
8e
8e
4c}
{12E
12G
12c
=3
4d
4f
12D
12F
12B
=4
2c
4r}
=5
{8C
8C
4E
4G
=6
8e
8e
4c}
{12E
12G
12c
=7
4d
4f
12D
12F
12B
=8
2c}
{8E
8G
=9
8F
8B
4d
8D
8F
=10
8E
8c
4e}
{8E
8G
=11
8F
8B
4d
8D
8F
=12
8E
8c
4e
4r}
=13
{8C
8C
8E
8E
8G
8G
=14
4e
4c}
{12E
12G
12c
=15
4d
4f
12D
12F
12B
=16
4c
4r}
{12E
12G
12c
=17
12D
12F
12B
4d
12D
12F
12B
=18
12E
12G
12c
4e}
{12E
12G
12c
=19
12D
12F
12B
4d
12D
12F
12B
=20
2c
4r}
==
!!!AGN: Staende -, Hirten -, Alm - Lied; Jodler
!!!ONB: ESAC (Essen Associative Code) Database: FINK
!!!AMT: simple triple
!!!AIN: vox
!!!EED: Helmut Schaffrath
!!!EEV: 1.0
*-
